Origami/48x48/apps/gifup.svg

<svg xmlns="http://www.w3.org/2000/svg" width="48" height="48" version="1.1" viewBox="0 0 48 48">
 <g transform="translate(0,-1004.3622)">
  <path style="opacity:0.2" d="m 6.6153731,1009.3636 c -1.434427,-0.046 -2.615431,1.0334 -2.615373,2.9923 l 0,16.9606 0,16.9631 c -5.78e-4,2.6871 2.130559,3.8698 3.83442,2.5249 l 10.4435639,-8.2334 10.445556,-8.2333 c 1.701946,-1.3433 1.701946,-4.6976 0,-6.0408 l -10.445556,-8.2334 -10.4435639,-8.2333 c -0.371245,-0.2928 -0.79046,-0.4532 -1.219047,-0.4667 z"/>
  <path style="fill:#358be1" d="m 6.6153731,1008.3636 c -1.434427,-0.046 -2.615431,1.0334 -2.615373,2.9923 l 0,16.9606 0,16.9631 c -5.78e-4,2.6871 2.130559,3.8698 3.83442,2.5249 l 10.4435639,-8.2334 10.445556,-8.2333 c 1.701946,-1.3433 1.701946,-4.6976 0,-6.0408 l -10.445556,-8.2334 -10.4435639,-8.2333 c -0.371245,-0.2928 -0.79046,-0.4532 -1.219047,-0.4667 z"/>
  <path style="opacity:0.2;fill:#ffffff" d="M 6.6152344 4.0019531 C 5.1808074 3.9559531 3.999942 5.0352406 4 6.9941406 L 4 7.9941406 C 3.999942 6.0352406 5.1808074 4.9559531 6.6152344 5.0019531 C 7.0438214 5.0154531 7.4627394 5.17595 7.8339844 5.46875 L 18.277344 13.701172 L 28.722656 21.935547 C 29.451811 22.511006 29.850698 23.457638 29.955078 24.455078 C 30.094335 23.124348 29.695448 21.703288 28.722656 20.935547 L 18.277344 12.701172 L 7.8339844 4.46875 C 7.4627394 4.17595 7.0438214 4.0154531 6.6152344 4.0019531 z" transform="translate(0,1004.3622)"/>
  <path style="opacity:0.2" d="m 13.615373,1009.3636 c -1.434427,-0.046 -2.615431,1.0334 -2.615373,2.9923 l 0,16.9606 0,16.9631 c -5.78e-4,2.6871 2.130559,3.8698 3.83442,2.5249 l 10.443564,-8.2334 10.445556,-8.2333 c 1.701946,-1.3433 1.701946,-4.6976 0,-6.0408 l -10.445556,-8.2334 -10.443564,-8.2333 c -0.371245,-0.2928 -0.79046,-0.4532 -1.219047,-0.4667 z"/>
  <path style="fill:#cccccc" d="m 13.615373,1008.3636 c -1.434427,-0.046 -2.615431,1.0334 -2.615373,2.9923 l 0,16.9606 0,16.9631 c -5.78e-4,2.6871 2.130559,3.8698 3.83442,2.5249 l 10.443564,-8.2334 10.445556,-8.2333 c 1.701946,-1.3433 1.701946,-4.6976 0,-6.0408 l -10.445556,-8.2334 -10.443564,-8.2333 c -0.371245,-0.2928 -0.79046,-0.4532 -1.219047,-0.4667 z"/>
  <path style="opacity:0.2;fill:#ffffff" d="M 13.615234 4.0019531 C 12.180807 3.9559531 10.999942 5.0352406 11 6.9941406 L 11 7.9941406 C 10.999942 6.0352406 12.180807 4.9559531 13.615234 5.0019531 C 14.043821 5.0154531 14.462739 5.17595 14.833984 5.46875 L 25.277344 13.701172 L 35.722656 21.935547 C 36.451811 22.511006 36.850698 23.457638 36.955078 24.455078 C 37.094335 23.124348 36.695448 21.703288 35.722656 20.935547 L 25.277344 12.701172 L 14.833984 4.46875 C 14.462739 4.17595 14.043821 4.0154531 13.615234 4.0019531 z" transform="translate(0,1004.3622)"/>
  <path style="opacity:0.2" d="m 20.615373,1009.3636 c -1.434427,-0.046 -2.615431,1.0334 -2.615373,2.9923 l 0,16.9606 0,16.9631 c -5.78e-4,2.6871 2.130559,3.8698 3.83442,2.5249 l 10.443564,-8.2334 10.445556,-8.2333 c 1.701946,-1.3433 1.701946,-4.6976 0,-6.0408 l -10.445556,-8.2334 -10.443564,-8.2333 c -0.371245,-0.2928 -0.79046,-0.4532 -1.219047,-0.4667 z"/>
  <path style="fill:#f47329" d="m 20.615373,1008.3636 c -1.434427,-0.046 -2.615431,1.0334 -2.615373,2.9923 l 0,16.9606 0,16.9631 c -5.78e-4,2.6871 2.130559,3.8698 3.83442,2.5249 l 10.443564,-8.2334 10.445556,-8.2333 c 1.701946,-1.3433 1.701946,-4.6976 0,-6.0408 l -10.445556,-8.2334 -10.443564,-8.2333 c -0.371245,-0.2928 -0.79046,-0.4532 -1.219047,-0.4667 z"/>
  <path style="opacity:0.2;fill:#ffffff" d="M 20.615234 4.0019531 C 19.180807 3.9559531 17.999942 5.0352406 18 6.9941406 L 18 7.9941406 C 17.999942 6.0352406 19.180807 4.9559531 20.615234 5.0019531 C 21.043821 5.0154531 21.462739 5.17595 21.833984 5.46875 L 32.277344 13.701172 L 42.722656 21.935547 C 43.451811 22.511006 43.850698 23.457638 43.955078 24.455078 C 44.094335 23.124348 43.695448 21.703288 42.722656 20.935547 L 32.277344 12.701172 L 21.833984 4.46875 C 21.462739 4.17595 21.043821 4.0154531 20.615234 4.0019531 z" transform="translate(0,1004.3622)"/>
 </g>
</svg>

<svg width="48" height="48" version="1.1" viewBox="0 0 48 48" xmlns="http://www.w3.org/2000/svg">
 <g transform="translate(0,-1004.3622)">
  <path d="m6.6153731 1009.3636c-1.434427-0.046-2.615431 1.0334-2.615373 2.9923v16.9606 16.9631c-5.78e-4 2.6871 2.130559 3.8698 3.83442 2.5249l10.443564-8.2334 10.445556-8.2333c1.701946-1.3433 1.701946-4.6976 0-6.0408l-10.445556-8.2334-10.443564-8.2333c-0.371245-0.2928-0.79046-0.4532-1.219047-0.4667z" style="opacity:.2"/>
  <path d="m6.6153731 1008.3636c-1.434427-0.046-2.615431 1.0334-2.615373 2.9923v16.9606 16.9631c-5.78e-4 2.6871 2.130559 3.8698 3.83442 2.5249l10.443564-8.2334 10.445556-8.2333c1.701946-1.3433 1.701946-4.6976 0-6.0408l-10.445556-8.2334-10.443564-8.2333c-0.371245-0.2928-0.79046-0.4532-1.219047-0.4667z" style="fill:#358be1"/>
  <path transform="translate(0,1004.3622)" d="m6.6152344 4.0019531c-1.434427-0.046-2.6152924 1.0332875-2.6152344 2.9921875v1c-5.8e-5 -1.9589 1.1808074-3.0381875 2.6152344-2.9921875 0.428587 0.0135 0.847505 0.1739969 1.21875 0.4667969l10.44336 8.232422 10.445312 8.234375c0.729155 0.575459 1.128042 1.522091 1.232422 2.519531 0.139257-1.33073-0.25963-2.75179-1.232422-3.519531l-10.445312-8.234375-10.44336-8.232422c-0.371245-0.2928-0.790163-0.4532969-1.21875-0.4667969z" style="fill:#ffffff;opacity:.2"/>
  <path d="m13.615373 1009.3636c-1.434427-0.046-2.615431 1.0334-2.615373 2.9923v16.9606 16.9631c-5.78e-4 2.6871 2.130559 3.8698 3.83442 2.5249l10.443564-8.2334 10.445556-8.2333c1.701946-1.3433 1.701946-4.6976 0-6.0408l-10.445556-8.2334-10.443564-8.2333c-0.371245-0.2928-0.79046-0.4532-1.219047-0.4667z" style="opacity:.2"/>
  <path d="m13.615373 1008.3636c-1.434427-0.046-2.615431 1.0334-2.615373 2.9923v16.9606 16.9631c-5.78e-4 2.6871 2.130559 3.8698 3.83442 2.5249l10.443564-8.2334 10.445556-8.2333c1.701946-1.3433 1.701946-4.6976 0-6.0408l-10.445556-8.2334-10.443564-8.2333c-0.371245-0.2928-0.79046-0.4532-1.219047-0.4667z" style="fill:#cccccc"/>
  <path transform="translate(0,1004.3622)" d="m13.615234 4.0019531c-1.434427-0.046-2.615292 1.0332875-2.615234 2.9921875v1c-5.8e-5 -1.9589 1.180807-3.0381875 2.615234-2.9921875 0.428587 0.0135 0.847505 0.1739969 1.21875 0.4667969l10.44336 8.232422 10.445312 8.234375c0.729155 0.575459 1.128042 1.522091 1.232422 2.519531 0.139257-1.33073-0.25963-2.75179-1.232422-3.519531l-10.445312-8.234375-10.44336-8.232422c-0.371245-0.2928-0.790163-0.4532969-1.21875-0.4667969z" style="fill:#ffffff;opacity:.2"/>
  <path d="m20.615373 1009.3636c-1.434427-0.046-2.615431 1.0334-2.615373 2.9923v16.9606 16.9631c-5.78e-4 2.6871 2.130559 3.8698 3.83442 2.5249l10.443564-8.2334 10.445556-8.2333c1.701946-1.3433 1.701946-4.6976 0-6.0408l-10.445556-8.2334-10.443564-8.2333c-0.371245-0.2928-0.79046-0.4532-1.219047-0.4667z" style="opacity:.2"/>
  <path d="m20.615373 1008.3636c-1.434427-0.046-2.615431 1.0334-2.615373 2.9923v16.9606 16.9631c-5.78e-4 2.6871 2.130559 3.8698 3.83442 2.5249l10.443564-8.2334 10.445556-8.2333c1.701946-1.3433 1.701946-4.6976 0-6.0408l-10.445556-8.2334-10.443564-8.2333c-0.371245-0.2928-0.79046-0.4532-1.219047-0.4667z" style="fill:#f47329"/>
  <path transform="translate(0,1004.3622)" d="m20.615234 4.0019531c-1.434427-0.046-2.615292 1.0332875-2.615234 2.9921875v1c-5.8e-5 -1.9589 1.180807-3.0381875 2.615234-2.9921875 0.428587 0.0135 0.847505 0.1739969 1.21875 0.4667969l10.44336 8.232422 10.445312 8.234375c0.729155 0.575459 1.128042 1.522091 1.232422 2.519531 0.139257-1.33073-0.25963-2.75179-1.232422-3.519531l-10.445312-8.234375-10.44336-8.232422c-0.371245-0.2928-0.790163-0.4532969-1.21875-0.4667969z" style="fill:#ffffff;opacity:.2"/>
 </g>
</svg>
